X: 13399
T: Flinn
R: jig
M: 6/8
K: Gmajor
G|G3 G3/2A/G|FDF G2A|B/c/dB c/d/ec|Bdd g2a|
gfe dcB|cde A3|F2D AF/G/A|G3{FA}G2:|
|:D3 BdB|E3 cec|FGA ABG|FDd d2c|
BAG G3|dBg ecA|Bcd dec|BcA AFD|
G2E E3|D3 dcB|ceA FDF|G3 G2:|

